X:1
T:Gay Birds
T:Gay Birds
T:By EDWARD B. CLAYPOOLE
T:Copyright 1924 by Jack Mills Inc.
T:Copyright 1924 by Jack Mills Inc.
T:Copyright 1924 by Jack Mills Inc.
T:Copyright 1924 by Jack Mills Inc.
C:By EDWARD B. CLAYPOOLE
Z:Copyright 1924 by Jack Mills Inc.
%%score { ( 1 2 4 ) | ( 3 5 ) }
L:1/8
Q:1/4=170
M:2/2
K:Ab
V:1 treble nm="Piano" snm="Pno."
V:2 treble 
V:4 treble 
V:3 bass 
V:5 bass 
V:1
"^Moderato""^(Not too fast)"!f!!<(! [CA]2 [=DB]2 [Ge]2!<)! z2 |!<(! [=Af]2 [=db]2!<)! [ge']2 z2 || %2
!mf!!<(! (!>![CA]2 [Acef])!<)! z!<(! (!>![CA]2 [Acef])!<)! z | %3
 z!<(! (!>![CA]2 [Acef])!<)! z!<(! (!>![CA]2 [Acef])!<)! | %4
!<(! (!>![=DB]2 [Ac=dg])!<)! z!<(! (!>![DB]2 [Acdg])!<)! z | %5
 z!<(! (!>![=DB]2 [Ac=dg])!<)! z!<(! (!>![DB]2 [Acdg])!<)! | z (f/g/ f).e (!>!cB) (!>![A,F][G,E]) | %7
 !>![_DFc] !>![D^Fc]2 !>![DGc]- [Gc]4 | z (f/g/ f).e (!>!dc) (!>!BA) | %9
 !>![=DFc] !>![D^Fc]2 !>![_DBe]- [DBe]4 |!<(! (!>![CA]2 [Acef])!<)! z!<(! (!>![CA]2 [Acef])!<)! z | %11
 z!<(! (!>![CA]2 [Acef])!<)! z!<(! (!>![CA]2 [Acef])!<)! | %12
!<(! (!>![=DB]2 [Ac=dg])!<)! z!<(! (!>![DB]2 [Acdg])!<)! z | %13
 z!<(! (!>![=DB]2 [Ac=dg])!<)! z!<(! (!>![DB]2 [Acdg])!<)! | z (f/g/ f).e (!>!cB) (!>![A,F][G,E]) | %15
 !>![DFc] !>![D^Fc]2 !>![EGe]- [EGe][E=F][=D^F][_DG] | [CA]2!<(! !>![CA]2 !>![=DB]2 !>![Ge]2!<)! | %17
 !>![Acea] z z2 z4 ||!mf! [Bg]2 (!>!dc) [=EB]2 [B,G]2 | z8 | [Af]2 (!>!dc) [FA]2 [A,G]2 | z8 | %22
 [=Af]2 (!>!dc) [EA]2 [=A,G]2 | [_A,F]2!<(! [B,G]2 [_DB]2 [Ec]2!<)! |!ff! (!>!dcB)(!>!d cB)(!>!dc | %25
 B)(!>!dcB) !>![=EGc] z z2 |!mf! [Bg]2 (!>!dc) [=EB]2 [B,G]2 | z8 | [Af]2 (!>!dc) [FA]2 [A,G]2 | %29
 z8 | [=Af]2 (!>!dc) [EA]2 [=A,F]2 | [_A,F]2!<(! [B,G]2 [_D_B]2 [Ec]2!<)! | %32
 (!>!_dc) [=EB]2 [B,G]2 (!>!DC) | [A,CF] z z2 z4 || %34
!mf!!<(! (!>![CA]2 [Acef])!<)! z!<(! (!>![CA]2 [Acef])!<)! z | %35
 z!<(! (!>![CA]2 [Acef])!<)! z!<(! (!>![CA]2 [Acef])!<)! | %36
!<(! (!>![=DB]2 [Ac=dg])!<)! z!<(! (!>![DB]2 [Acdg])!<)! z | %37
 z!<(! (!>![=DB]2 [Ac=dg])!<)! z!<(! (!>![DB]2 [Acdg])!<)! | z (f/g/ f).e (!>!cB) (!>![A,F][G,E]) | %39
 !>![_DFc] !>![D^Fc]2 !>![DGc]- [Gc]4 | z (f/g/ f).e (!>!dc) (!>!BA) | %41
 !>![=DFc] !>![D^Fc]2 !>![_DBe]- [DBe]4 |!<(! (!>![CA]2 [Acef])!<)! z!<(! (!>![CA]2 [Acef])!<)! z | %43
 z!<(! (!>![CA]2 [Acef])!<)! z!<(! (!>![CA]2 [Acef])!<)! | %44
!<(! (!>![=DB]2 [Ac=dg])!<)! z!<(! (!>![DB]2 [Acdg])!<)! z | %45
 z!<(! (!>![=DB]2 [Ac=dg])!<)! z!<(! (!>![DB]2 [Acdg])!<)! | z (f/g/ f).e (!>!cB) (!>![A,F][G,E]) | %47
 !>![DFc] !>![D^Fc]2 !>![EGe]- [EGe][E=F][=D^F][_DG] | [CA]2!<(! !>![CA]2 !>![=DB]2 !>![Ge]2!<)! | %49
 !>![Acea] z !>![_ge']2!>(! !>![ca]2 !>![_Ge]2!>)! || %50
[K:Db]!p! .[Afa]([Ae]/a/ [Ae]).[Ad] ([Ae]/a/[Ae]) .[Afa]([Ae]/a/ | %51
 [Ae]).[Ad] ([Ae]/a/[Ae]) .[Afa]([Ae]/a/ [Ae]).[Ad] | %52
 .[=Gf=g]([Ge]/g/ [Ge]).[Gd] ([Ge]/g/[Ge]) .[Gfg]([Ge]/g/ | %53
 [=Ge]).[Gd] ([Ge]/=g/[Ge]) .[Gfg]([Ge]/g/ [Ge]).[Gd] | %54
 (!>![_Gc]!<(!a)(!>![Gd]a) (!>![G=d]a)(!>![Ge]a)!<)! |!f! [=db]2 [Af]2 [=DB]2 [A,F]2 | %56
 (!>![_D=G]e)(!>![DA]e) (!>![D=A]e)(!>![DB]e) |!f! [_ge']2 [ca]2 [Ge]2 [CA]2 | %58
!p! .[Afa]([Ae]/a/ [Ae]).[Ad] ([Ae]/a/[Ae]) .[Afa]([Ae]/a/ | %59
 [Ae]).[Ad] ([Ae]/a/[Ae]) .[Afa]([Ae]/a/ [Ae]).[Ad] | %60
 .[=Gf=g]([Ge]/g/ [Ge]).[Gd] ([Ge]/g/[Ge]) .[Gfg]([Ge]/g/ | %61
 [=Ge]).[Gd] ([Ge]/=g/[Ge]) .[Gfg]([Ge]/g/ [Ge]).[Gd] | %62
 (!>![_Gc]!<(!a)(!>![Gd]a) (!>![G=d]a)(!>![Ge]a)!<)! | [=db]2 [Af]2 [=DB]2 [A,F]2 | %64
 [=G_df](e/f/ e).[Gd] [D_GB] [CGA]2 [DFd]- | %65
 [DFd] !>![^G,=D^G]2 !>![=G,_D=G]- [G,DG]!>![^F,C^F] !>![=F,_D=F]2 || %66
[K:Ab]!f!!<(! [CA]2 [=DB]2 [Ge]2!<)! z2 | [=Af]2!<(! [=db]2 [ge']2!<)! z2 || %68
!mf!!<(! (!>![CA]2 [Acef])!<)! z!<(! (!>![CA]2 [Acef])!<)! z | %69
 z!<(! (!>![CA]2 [Acef])!<)! z!<(! (!>![CA]2 [Acef])!<)! | %70
!<(! (!>![=DB]2 [Ac=dg])!<)! z!<(! (!>![DB]2 [Acdg])!<)! z | %71
 z!<(! (!>![=DB]2 [Ac=dg])!<)! z!<(! (!>![DB]2 [Acdg])!<)! | z (f/g/ f).e (!>!cB) (!>![A,F][G,E]) | %73
 !>![_DFc] !>![D^Fc]2 !>![DGc]- [Gc]4 | z (f/g/ f).e (!>!dc) (!>!BA) | %75
 !>![=DFc] !>![D^Fc]2 !>![_DBe]- [DBe]4 |!<(! (!>![CA]2 [Acef])!<)! z!<(! (!>![CA]2 [Acef])!<)! z | %77
 z!<(! (!>![CA]2 [Acef])!<)! z!<(! (!>![CA]2 [Acef])!<)! | %78
!<(! (!>![=DB]2 [Ac=dg])!<)! z!<(! (!>![DB]2 [Acdg])!<)! z | %79
 z!<(! (!>![=DB]2 [Ac=dg])!<)! z!<(! (!>![DB]2 [Acdg])!<)! | z (f/g/ f).e (!>!cB) (!>![A,F][G,E]) | %81
 !>![DFc] !>![D^Fc]2 !>![EGe]- [EGe][E=F][=D^F][_DG] | [CA]2!<(! !>![CA]2 !>![=DB]2 !>![Ge]2!<)! | %83
 [Acea]2 z2 !arpeggio!!^![ac'e'a']2 z2 |] %84
V:2
 (!>!FE) (!>!GF) (!>!cB) x2 | (!>!=dc) (!>!gf) (!>!c'b) !>!e2 || (!>!FE) x2 (!>!FE) x2 | %3
 x (!>!FE) x2 (!>!FE) x | (!>!GF) x2 (!>!GF) x2 | x (!>!GF) x2 (!>!GF) x | x [G_d]3 [_DG]2 D2 | %7
 x4 DE=D_D | x [Ac]3 [EA]2 [CE]2 | x8 | (!>!FE) x2 (!>!FE) x2 | x (!>!FE) x2 (!>!FE) x | %12
 (!>!GF) x2 (!>!GF) x2 | x (!>!GF) x2 (!>!GF) x | x [G_d]3 [DG]2 D2 | x8 | %16
 x2 (!>!FE) (!>!GF) (!>!cB) | x8 || (!>!dc) [=EB]2 (!>!DC) (!>!DC) | x8 | %20
 (!>!dc) [FA]2 (!>!DC) (!>!DC) | x8 | (!>!_dc) [E=A]2 (!>!DC) (!>!DC) | %23
 (!>!DC) (!>!E=D) (!>!GF) (!>!A=G) | !>![FG]3 !>![FG]- [FG]2 (!>![FG]2- | [FG]) !>![FG]3 x4 | %26
 (!>!dc) [=EB]2 (!>!DC) (!>!DC) | x8 | (!>!dc) [FA]2 (!>!DC) (!>!DC) | x8 | %30
 (!>!dc) [E=A]2 (!>!DC) (!>!DC) | (!>!_DC) (!>!E=D) (!>!GF) (!>!A=G) | [=EG]2 (!>!DC) (!>!DC) x2 | %33
 x8 || (!>!FE) x2 (!>!FE) x2 | x (!>!FE) x2 (!>!FE) x | (!>!GF) x2 (!>!GF) x2 | %37
 x (!>!GF) x2 (!>!GF) x | x [G_d]3 [_DG]2 D2 | x4 DE=D_D | x [Ac]3 [EA]2 [CE]2 | x8 | %42
 (!>!FE) x2 (!>!FE) x2 | x (!>!FE) x2 (!>!FE) x | (!>!GF) x2 (!>!GF) x2 | x (!>!GF) x2 (!>!GF) x | %46
 x [G_d]3 [DG]2 D2 | x8 | x2 (!>!FE) (!>!GF) (!>!cB) | x2 (!>!ba) (!>!f_e) (!>!BA) ||[K:Db] x8 | %51
 x8 | x8 | x8 | x8 | (!>!gf) (!>!cB) (!>!GF) (!>!CB,) | x8 | (!>!ba) (!>!fe) (!>!BA) (!>!FE) | x8 | %59
 x8 | x8 | x8 | x8 | (!>!gf) (!>!cB) (!>!GF) (!>!CB,) | x8 | x8 || %66
[K:Ab] (!>!FE) (!>!GF) (!>!cB) x2 | (!>!=dc) (!>!gf) (!>!c'b) !>!e2 || (!>!FE) x2 (!>!FE) x2 | %69
 x (!>!FE) x2 (!>!FE) x | (!>!GF) x2 (!>!GF) x2 | x (!>!GF) x2 (!>!GF) x | x [G_d]3 [_DG]2 D2 | %73
 x4 DE=D_D | x [Ac]3 [EA]2 [CE]2 | x8 | (!>!FE) x2 (!>!FE) x2 | x (!>!FE) x2 (!>!FE) x | %78
 (!>!GF) x2 (!>!GF) x2 | x (!>!GF) x2 (!>!GF) x | x [G_d]3 [DG]2 D2 | x8 | %82
 x2 (!>!FE) (!>!GF) (!>!cB) | x4 !arpeggio!!^![A,EA]2 x2 |] %84
V:3
 [A,,E,]2 [B,,A,]2 [E,_D]2 E2 | [F,E]2 [B,_A]2 x4 || A,,2 [E,A,C]2 E,,2 [E,A,C]2 | %3
 A,,2 [E,A,C]2 E,,2 [E,A,C]2 | B,,2 [A,B,=D]2 F,,2 [A,B,D]2 | B,,2 [A,B,=D]2 F,,2 [A,B,D]2 | %6
 !arpeggio![B,,G,_D]2 [E,G,D]2 E,,2 E,2 | B,,2 E,2 E,,2 [E,G,]2 | %8
 !arpeggio![A,,E,C]2 [E,A,C]2 E,,2 E,2 | [B,,,B,,]2 A,2 .[E,,E,].[E,,E,].[F,,F,].[G,,G,] | %10
 A,,2 [E,A,C]2 E,,2 [E,A,C]2 | A,,2 [E,A,C]2 E,,2 [E,A,C]2 | B,,2 [A,B,=D]2 F,,2 [A,B,D]2 | %13
 B,,2 [A,B,=D]2 F,,2 [A,B,D]2 | !arpeggio![B,,G,_D]2 [E,G,D]2 E,,2 E,2 | B,,2 E,2 E,,2 E,2 | %16
 [A,,E,]2 !>![A,,E,]2 !>![B,,A,]2 !>![E,_D]2 | %17
 !arpeggio!!>![A,,E,C] z !tenuto!C2 !tenuto!C2 !tenuto!C2 || [C,,C,]2 [C,=E,B,]2 C,,2 [C,E,]2 | %19
 (!>!D,C,)._E,.D, .C,.B,,.A,,.G,, | F,,2 [F,A,]2 C,,2 [C,F,]2 | (!>!D,C,).E,.D, .C,.B,,.A,,.G,, | %22
 F,,2 [F,=A,]2 F,,2 F,2 | (!>!^C,=D,)(!>!^D,=E,) (!>!^F,G,)(!>!^G,=A,) | %24
 (!>!B,CD)(!>!B, CD)(!>!B,C | D)(!>!B,CD) !>!C z !^![C,,C,] z | [C,,C,]2 [C,=E,B,]2 C,,2 [C,E,]2 | %27
 (!>!D,C,)._E,.D, .C,.B,,.A,,.G,, | F,,2 [F,A,]2 C,,2 [C,F,]2 | (!>!D,C,).E,.D, .C,.B,,.A,,.G,, | %30
 F,,2 [F,=A,]2 F,,2 F,2 | (!>!^C,=D,) (!>!^D,=E,) (!>!^F,G,) (!>!^G,=A,) | B,2 z2 C,2 z2 | %33
 [F,,F,] z C,, z !>!F,,, z z2 || A,,2 [E,A,C]2 E,,2 [E,A,C]2 | A,,2 [E,A,C]2 E,,2 [E,A,C]2 | %36
 B,,2 [A,B,=D]2 F,,2 [A,B,D]2 | B,,2 [A,B,=D]2 F,,2 [A,B,D]2 | %38
 !arpeggio![B,,G,_D]2 [E,G,D]2 E,,2 E,2 | B,,2 E,2 E,,2 [E,G,]2 | %40
 !arpeggio![A,,E,C]2 [E,A,C]2 E,,2 E,2 | [B,,,B,,]2 A,2 .[E,,E,].[E,,E,].[F,,F,].[G,,G,] | %42
 A,,2 [E,A,C]2 E,,2 [E,A,C]2 | A,,2 [E,A,C]2 E,,2 [E,A,C]2 | B,,2 [A,B,=D]2 F,,2 [A,B,D]2 | %45
 B,,2 [A,B,=D]2 F,,2 [A,B,D]2 | !arpeggio![B,,G,_D]2 [E,G,D]2 E,,2 E,2 | B,,2 E,2 E,,2 E,2 | %48
 [A,,E,]2 !>![A,,E,]2 !>![B,,A,]2 !>![E,_D]2 | %49
 !arpeggio!!>![A,,E,C] z[K:treble] (!>!dc) (!>!A_G) (!>!DC) || %50
[K:Db][K:bass] [D,,D,]2 [A,DF]2 [A,,,A,,]2 [A,DF]2 | [D,,D,]2 [A,DF]2 [A,,,A,,]2 [A,DF]2 | %52
 B,,2 [E,=G,D]2 E,,2 [E,G,D]2 | B,,2 [E,=G,D]2 E,,2 [E,G,D]2 | %54
 !>![A,,A,]2 !>![B,,B,]2 !>![=B,,=B,]2 !>![C,C]2 | %55
[K:treble] (!>!BA) (!>!E=D)[K:bass] (!>!B,A,) (!>!E,=D,) | %56
 !>![E,,E,]2 !>![F,,F,]2 !>![^F,,^F,]2 !>![=G,,=G,]2 | %57
[K:treble] (!>!dc) (!>!A_G)[K:bass] (!>!DC) (!>!A,G,) | [D,,D,]2 [A,DF]2 [A,,,A,,]2 [A,DF]2 | %59
 [D,,D,]2 [A,DF]2 [A,,,A,,]2 [A,DF]2 | B,,2 [E,=G,D]2 E,,2 [E,G,D]2 | %61
 B,,2 [E,=G,D]2 E,,2 [E,G,D]2 | !>![A,,A,]2 !>![B,,B,]2 !>![=B,,=B,]2 !>![C,C]2 | %63
[K:treble] (!>!BA) (!>!E=D)[K:bass] (!>!B,A,) (!>!E,=D,) | E,,2 [E,=G,D]2 [A,,,A,,]2 [A,,A,]2 | %65
 [D,,D,] !>![=E,,=B,,]2 !>![_E,,_B,,]- [E,,B,,]!>![=D,,=A,,] !>![_D,,_A,,]2 || %66
[K:Ab] [A,,E,]2 [B,,A,]2 [E,_D]2 E2 | [F,E]2 [B,_A]2 x4 || A,,2 [E,A,C]2 E,,2 [E,A,C]2 | %69
 A,,2 [E,A,C]2 E,,2 [E,A,C]2 | B,,2 [A,B,=D]2 F,,2 [A,B,D]2 | B,,2 [A,B,=D]2 F,,2 [A,B,D]2 | %72
 !arpeggio![B,,G,_D]2 [E,G,D]2 E,,2 E,2 | B,,2 E,2 E,,2 [E,G,]2 | %74
 !arpeggio![A,,E,C]2 [E,A,C]2 E,,2 E,2 | [B,,,B,,]2 A,2 .[E,,E,].[E,,E,].[F,,F,].[G,,G,] | %76
 A,,2 [E,A,C]2 E,,2 [E,A,C]2 | A,,2 [E,A,C]2 E,,2 [E,A,C]2 | B,,2 [A,B,=D]2 F,,2 [A,B,D]2 | %79
 B,,2 [A,B,=D]2 F,,2 [A,B,D]2 | !arpeggio![B,,G,_D]2 [E,G,D]2 E,,2 E,2 | B,,2 E,2 E,,2 E,2 | %82
 [A,,E,]2 !>![A,,E,]2 !>![B,,A,]2 !>![E,_D]2 | !arpeggio![A,,E,C]2 z2 x2"^l.h." z2 |] %84
V:4
 x8 | x4 [E_d]2 x2 || x8 | x8 | x8 | x8 | x8 | x8 | x8 | x8 | x8 | x8 | x8 | x8 | x8 | x8 | x8 | %17
 x8 || x8 | x8 | x8 | x8 | x8 | x8 | x8 | x8 | x8 | x8 | x8 | x8 | x8 | x8 | x8 | x8 || x8 | x8 | %36
 x8 | x8 | x8 | x8 | x8 | x8 | x8 | x8 | x8 | x8 | x8 | x8 | x8 | x8 ||[K:Db] x8 | x8 | x8 | x8 | %54
 x8 | x8 | x8 | x8 | x8 | x8 | x8 | x8 | x8 | x8 | x8 | x8 ||[K:Ab] x8 | x4 [E_d]2 x2 || x8 | x8 | %70
 x8 | x8 | x8 | x8 | x8 | x8 | x8 | x8 | x8 | x8 | x8 | x8 | x8 | x8 |] %84
V:5
 x8 | x8 || x8 | x8 | x8 | x8 | x8 | x8 | x8 | x8 | x8 | x8 | x8 | x8 | x8 | x8 | x8 | x8 || x8 | %19
 x8 | x8 | x8 | x8 | x8 | x8 | x8 | x8 | x8 | x8 | x8 | x8 | x8 | x6 [=E,B,]2 | x8 || x8 | x8 | %36
 x8 | x8 | x8 | x8 | x8 | x8 | x8 | x8 | x8 | x8 | x8 | x8 | x8 | x2[K:treble] x6 || %50
[K:Db][K:bass] x8 | x8 | x8 | x8 | x8 |[K:treble] x4[K:bass] x4 | x8 |[K:treble] x4[K:bass] x4 | %58
 x8 | x8 | x8 | x8 | x8 |[K:treble] x4[K:bass] x4 | x8 | x8 ||[K:Ab] x8 | x8 || x8 | x8 | x8 | x8 | %72
 x8 | x8 | x8 | x8 | x8 | x8 | x8 | x8 | x8 | x8 | x8 | x8 |] %84

